src/icons/notifications.svg

<svg xmlns="http://www.w3.org/2000/svg" width="18" height="18" viewBox="0 0 20 15" fill="none"><path d="M11.3496 1.86129C10.9253 1.55851 10.4416 1.34927 9.93034 1.24743L10.1257 0.266705C10.7758 0.396204 11.3909 0.662266 11.9305 1.04729C12.4701 1.43231 12.9217 1.92752 13.2556 2.50014C13.5894 3.07277 13.7979 3.70976 13.8672 4.36898C13.9364 5.0282 13.8649 5.69461 13.6574 6.32412L12.7077 6.01102C12.8709 5.51596 12.9271 4.99189 12.8726 4.47348C12.8182 3.95507 12.6542 3.45414 12.3917 3.00382C12.1291 2.55351 11.7739 2.16407 11.3496 1.86129Z"/><path fill-rule="evenodd" clip-rule="evenodd" d="M6.16967 0.630135L7.05089 0.601745L11.6759 8.61249L11.2107 9.36145L5.96477 9.02304L5.6628 9.19738L7.30989 12.0504L7.12686 12.7334L5.39481 13.7333L4.7118 13.5503L3.06465 10.6974L2.41522 11.0724L1.73221 10.8894L0.107193 8.07478L0.290204 7.39177L3.83975 5.34244L6.16967 0.630135ZM5.16285 8.33132L4.03781 6.38279L1.22322 8.00779L2.34823 9.95634L5.16285 8.33132ZM3.93067 10.1974L5.32782 12.6173L6.19386 12.1173L4.79677 9.69738L3.93067 10.1974ZM10.3427 8.30338L6.14512 8.03259L4.78767 5.68148L6.652 1.91085L10.3427 8.30338Z" fill="black"/><path d="M10.7634 2.67054C10.4614 2.4565 10.1183 2.30738 9.75578 2.23262L9.5538 3.212C9.78096 3.25885 9.99594 3.35228 10.1852 3.4864C10.3744 3.62052 10.5338 3.79242 10.6532 3.99123C10.7727 4.19005 10.8496 4.41147 10.8792 4.64152C10.9088 4.87156 10.8903 5.10524 10.825 5.3278L11.7846 5.60932C11.8888 5.25412 11.9182 4.88118 11.871 4.51404C11.8238 4.14689 11.7011 3.79352 11.5104 3.47622C11.3198 3.15892 11.0654 2.88459 10.7634 2.67054Z"/></svg>

<svg xmlns="http://www.w3.org/2000/svg" width="18" height="18" fill="none" viewBox="0 0 20 15"><path d="M11.35 1.861a3.7 3.7 0 0 0-1.42-.614l.196-.98a4.682 4.682 0 0 1 3.531 6.057l-.95-.313a3.68 3.68 0 0 0-1.357-4.15"/><path fill="#000" fill-rule="evenodd" d="m6.17.63.88-.028 4.626 8.01-.465.75-5.246-.339-.302.174L7.31 12.05l-.183.683-1.732 1-.683-.183-1.647-2.853-.65.375-.683-.183L.107 8.075l.183-.683 3.55-2.05zM5.163 8.331 4.038 6.383 1.223 8.008l1.125 1.948zM3.93 10.197l1.397 2.42.866-.5-1.397-2.42zm6.412-1.894-4.198-.27L4.788 5.68l1.864-3.77z" clip-rule="evenodd"/><path d="M10.763 2.67a2.7 2.7 0 0 0-1.007-.437l-.202.979a1.68 1.68 0 0 1 1.271 2.116l.96.281a2.68 2.68 0 0 0-1.022-2.938"/></svg>
